X: 187
T: the Free Mistress
T: Longways for &c.
%R: march
B: Daniel Wright "Wright's Compleat Collection of Celebrated Country Dances" 1740 p.94
S: http://library.efdss.org/cgi-bin/dancebooks.cgi
Z: 2014 John Chambers <jc:trillian.mit.edu>
N: The 2nd strain has initial repeat but no final repeat; not fixed.
N: This dance has a vertical "yu", interpreted as "thou", which may be wrong.
M: C|
L: 1/8
K: Dm
% - - - - - - - - - - - - - - - - - - - - - - - - -
A |\
A2d2 ^c2d2 | e2f2 d2ef |\
g2f2 e2d2 | ^c4 d3 :|\
|: d |\
d2a2 a2a2 | b2ag a3d |\
d2a2 a2a2 |
b2ag a3A |\
A2d2 d2e2 | f4 e2ef |\
g2f2 e2d2 | ^c4 A2d^c |\
defg a2d2 | e4 d3 |]
% - - - - - - - - - - - - - - - - - - - - - - - - -
%%begintext align
%% One Man lead in two We. forwards and back honour
%% to one honour to the other, and turn the 3d .| lead their own
%% with their left hand, and the Wo. thou turn'd the same :| the same
%% with the other two We. turning their own .:| 1st Man lead the
%% We. as before. turn half round, holding both hands,
%% and his own as much to the other, turn the 3d Wo. .| do
%% thus to all, the rest following and doing the like. 1st
%% Man take the We. as before by the Co. hands behind,
%% and lead them forwards and back, pull one half about
%% and kiss her, as much with the other, turn the 3d .| do
%% thus to all, the rest following and doing the like.
%%endtext
% - - - - - - - - - - - - - - - - - - - - - - - - -
%%sep 2 4 300
